img/twitter.svg

<svg width="25" height="20" viewBox="0 0 25 20" fill="none" xmlns="http://www.w3.org/2000/svg">
<path d="M24.5004 2.46499C23.6188 2.85093 22.6594 3.12868 21.6711 3.23686C22.6971 2.6183 23.4655 1.64107 23.832 0.488518C22.8692 1.06973 21.8145 1.47729 20.7146 1.69311C20.2549 1.19439 19.6989 0.797093 19.0813 0.525965C18.4636 0.254836 17.7976 0.115691 17.1247 0.1172C14.402 0.1172 12.2123 2.35681 12.2123 5.10515C12.2123 5.49109 12.2584 5.87703 12.3333 6.24835C8.2565 6.03199 4.62048 4.05552 2.2032 1.02942C1.76274 1.79286 1.53193 2.66213 1.53477 3.54678C1.53477 5.27766 2.402 6.80386 3.72444 7.70146C2.94511 7.67032 2.18402 7.45294 1.50308 7.067V7.1284C1.50308 9.55221 3.19143 11.5608 5.44161 12.0228C5.01912 12.1342 4.58449 12.1911 4.14797 12.1924C3.82817 12.1924 3.52565 12.1602 3.22024 12.1164C3.84257 14.0928 5.65482 15.5284 7.8128 15.5752C6.12444 16.9172 4.00968 17.7066 1.7134 17.7066C1.3014 17.7066 0.921085 17.692 0.526367 17.6452C2.70452 19.0632 5.28891 19.8819 8.0721 19.8819C17.1074 19.8819 22.0514 12.2859 22.0514 5.69283C22.0514 5.47647 22.0514 5.26011 22.037 5.04375C22.9936 4.33328 23.832 3.45322 24.5004 2.46499Z" fill="#21A6DF"/>
</svg>

<svg width="25" height="20" fill="none" xmlns="http://www.w3.org/2000/svg"><path d="M24.5 2.465a9.739 9.739 0 0 1-2.829.772A4.96 4.96 0 0 0 23.832.489a9.613 9.613 0 0 1-3.117 1.204A4.902 4.902 0 0 0 19.08.526a4.84 4.84 0 0 0-1.956-.409c-2.723 0-4.913 2.24-4.913 4.988 0 .386.046.772.121 1.143A13.896 13.896 0 0 1 2.203 1.03a5.007 5.007 0 0 0-.668 2.518c0 1.73.867 3.257 2.19 4.154a4.9 4.9 0 0 1-2.222-.634v.061c0 2.424 1.688 4.433 3.939 4.895a5.133 5.133 0 0 1-1.294.17 6.45 6.45 0 0 1-.928-.077 4.931 4.931 0 0 0 4.593 3.46 9.756 9.756 0 0 1-6.1 2.13c-.412 0-.792-.014-1.187-.06a13.765 13.765 0 0 0 7.546 2.236c9.035 0 13.98-7.596 13.98-14.19 0-.216 0-.432-.015-.648.957-.71 1.795-1.59 2.463-2.579Z" fill="#21A6DF"/></svg>
